X:0892
T:Miss Jean Shirreff's Reel.
N:from John Macglashan, 1798 (flute version)
M:C
L:1/8
Q:1/2=108
I: :: ||
Z:Jack Campin * www.campin.me.uk * 2009
K:D
c|dAFA {c}d2 AF|d2fd ceef|dAFA    d2AF|GBAF D/D/D D:|
f|abag {g}f2 df|gefd ceef|abag {g}f2df|edef d/d/d df|
  abag {g}f2 df|gefd cggf|dAFA    BGdF|GBAF D/D/D D|]
<end>
<start>
